X:2997
T:Jenny's Delight
O:england
R:Reel
M:C
A:Westmorland
N:P6 1/2
K:D
D2|FAAB d2ef|fddf eE-E2|\
FAAB d2eg|fd AB/2c/2 dDD2:|
|:A|F2AF BG AF|F2AF BE E2|\
F2AF BG AF|FG AF EDD2:|
